X: 25
M: C
L: 1/8
K: G
(vA | B)GAG TE2D2 | (vBG)u(AG) BGAd | BGAG TE2(uDE) | GABA G2G :|
(ug | eg)dB AGkE2 | (ueg)dg egvd(ug | eg)dB AG E(ue | kg2g)(vg a)(ufg2) |
"^ff"egdg egvd(ug | eg)dB vA(uGED) | GABG TE2(uDE) | GABA G3 |]
dey keepit da boat aboot ee place.  If it wis a fine day it just
meant pooin peerie-wise but if it was wind it took a braw grain o
rowin just to hadd her in ee place.  Dis was caaed aandowin, as
da rhyme says it wis made up be da late Andrew Abernathy o' Twatt:
(da rhyme follows da first half o' da t\"un).
		No Gaen Forward,
		No gaen trow
		Bidin aboot ee place
		Aandowin at da bow


